X:1
T:Freeman, 10.10.10.10.10.10
T:Freeman, 10.10.10.10.10.10
T:George Benjamin Lissant (1827-1899)
T:Public Domain Courtesy of the Cyber Hymnal™
C:George Benjamin Lissant (1827-1899)
Z:Public Domain
Z:Courtesy of the Cyber Hymnal™
%%score ( 1 2 ) ( 3 4 )
L:1/8
Q:1/4=115
M:3/4
K:G
V:1 treble 
V:2 treble 
V:3 bass 
V:4 bass 
V:1
 [GB]2 | ([Ad]2 F2) [EG]2 | [Dc]4 [DB]2 | [DB][DA] [DG]2 [FA]2 | [GB]4 [=FB]2 | [EB]2 [EA]4 | %6
 [Ee]4 [Ed]2 | [Ec]3 E [EF][EG] | [FA]4 [FA]2 | (B2 z [DB]2) x | (d2 ^c2) [EB]2 | %11
 [FA][FB] [G^c]2 [Ge]2 | [Fd]4 [E^c]2 | ([E^c]2 B2) [FA]2 | [FA]3 [EG] [B,F][B,E] | %15
 (D2 F2) [^CE]2 | D6 | [Dd]2 (cB) (AG) | [DF]4 [CE]2 | [Cc][DB] (AG) (FE) | (E2 ^D2) [DF]2 | %21
 [EB]2 z [=FB] [FA][FG] | G3 (z [Gd]2) | (c2 E2) [DF]2 | [DG]4 |] %25
V:2
 x2 | x2 F2 x2 | x6 | x6 | x6 | x6 | x6 | x3 E x2 | x6 | G3 (A2 E) | E4 x2 | x6 | x6 | x2 (DE) x2 | %14
 x6 | D4 x2 | D6 | x2 D2 D2 | x6 | x2 E2 C2 | B,4 x2 | x6 | (E2 e2 F) x | E4 x2 | x4 |] %25
V:3
 [G,D]2 | ([F,D]2 [D,C]2) [E,B,]2 | [F,A,]4 G,2 | [F,C][F,C] [G,B,]2 [D,D]2 | [G,D]4 [^G,D]2 | %5
 [A,D]2 [A,C]4 | [^G,B,]4 [E,G,]2 | A,3 [A,C] [A,C][A,C] | (C2 A,2) [D,D]2 | (D2 C2) [G,B,]2 | %10
 [G,A,]4 (B,^C) | [F,D][D,D] [A,E]2 [^A,^C]2 | [B,D]4 [F,^A,]2 | (^A,2 B,2) [^D,C]2 | %14
 [E,B,]3 [E,B,] [G,,A,][G,,G,] | (F,2 A,2) [A,,G,]2 | [D,F,]6 | [B,,G,]2 [G,,G,]2 [B,,G,]2 | %18
 [C,G,]4 [C,G,]2 | [A,,A,][B,,A,] ([C,A,][B,,B,]) (CG,) | (G,2 F,2) B,2 | %21
 [G,B,]2 z [G,D] [G,C][G,B,] | ([C,C]2 C2) [B,D]2 | (E2 C2) [D,C]2 | [G,B,]4 |] %25
V:4
 x2 | x6 | x4 G,2 | x6 | x6 | x6 | x6 | A,3 x3 | D,4 x2 | G,4 x2 | x4 G,2 | x6 | x6 | G,4 x2 | x6 | %15
 A,,4 x2 | x6 | x6 | x6 | x4 A,,2 | B,,4 (B,A,) | x6 | x2 C2 x2 | A,4 x2 | x4 |] %25

